X:1
T:Maid of Selma -- Jig
R:jig
B:Ryan's Mammoth Collection
O:SCOTCH
Z: Contributed by Ray Davies, ray:davies99.freeserve.co.uk
M:6/8
L:1/8
K:G
v(G2.E) uEDE|vG3 (g2e)|(d2B) BAG|ABA (A2B)|\
(G2.E) EDE|G3 (g2e)|(d2B) BAG|"4"A3 G3:|
vd3  gfg|e3 dcB|(d2e) (g2a)|(b2e) e2 z |\
d3 gfg|e3 dcB|(d2e) (g2b)|a3  (g2a)|\
(b2e) efg|(f2d) d3 |(e2B) BAG|(A2E) E3 |\
(G2E) EDE|G3 g3|edB BAG|"4"A3 G3 |]
